X: 1134
T: Rosie Finn's Favourite / Biddy The Darling
M: 12/8
L: 1/8
R: slide
K: D Major
|: A | 
D2 F A2 d f2 d A2 F | GFG edc dcB AFE |
D2 F A2 d f2 d A2 F |GBG e>dc d3 d2 :|
|: A |
d2 f g2 f e2 B BdB | cec ABc dcB AFA |
d2 f g2 f e2 B BdB | cc/c/c ABc d3 d2 :|
